src/assets/duotone/VideoOctagon.svg

<svg width="24" height="24" viewBox="0 0 24 24"  xmlns="http://www.w3.org/2000/svg">
<path opacity="0.4" d="M21.0801 8.58003V15.42C21.0801 16.54 20.4802 17.58 19.5102 18.15L13.5702 21.58C12.6002 22.14 11.4002 22.14 10.4202 21.58L4.48016 18.15C3.51016 17.59 2.91016 16.55 2.91016 15.42V8.58003C2.91016 7.46003 3.51016 6.41999 4.48016 5.84999L10.4202 2.42C11.3902 1.86 12.5902 1.86 13.5702 2.42L19.5102 5.84999C20.4802 6.41999 21.0801 7.45003 21.0801 8.58003Z" />
<path d="M9.75 11.9999V10.7999C9.75 9.25989 10.84 8.62993 12.17 9.39993L13.21 9.9999L14.25 10.5999C15.58 11.3699 15.58 12.6299 14.25 13.3999L13.21 13.9999L12.17 14.5999C10.84 15.3699 9.75 14.7399 9.75 13.1999V11.9999Z" />
</svg>

<?xml version="1.0" encoding="UTF-8"?>
<svg width="24" height="24" viewBox="0 0 24 24" xmlns="http://www.w3.org/2000/svg">
 <path d="m21.08 8.58v6.84c0 1.12-0.5999 2.16-1.5699 2.73l-5.94 3.43c-0.97 0.56-2.17 0.56-3.15 0l-5.94-3.43c-0.97-0.56-1.57-1.6-1.57-2.73v-6.84c0-1.12 0.6-2.16 1.57-2.73l5.94-3.43c0.97-0.56 2.17-0.56 3.15 0l5.94 3.43c0.97 0.57 1.5699 1.6 1.5699 2.73z" opacity=".4"/>
 <path d="m9.75 12v-1.2c0-1.54 1.09-2.17 2.42-1.4l1.04 0.59997 1.04 0.6c1.33 0.77 1.33 2.03 0 2.8l-2.08 1.2c-1.33 0.77-2.42 0.14-2.42-1.4v-1.2z"/>
</svg>
